X: 27557
T: Monday, Tuesday, Wednesday
R: jig
M: 6/8
K: Gmajor
G/A/|BGE E2 G|AFD D2 D|EEE E2 (3E/F/G/|
c3 B2 A|BGE E2 G|AFD D2 D|EEE E2 (3E/F/G/|A3 G2|

